icon/pk/bless.svg

<svg viewBox="0 0 48 48" fill="none" xmlns="http://www.w3.org/2000/svg" height="1em" width="1em">
  <path d="M21 24.713V5.9354C21 4.86651 20.1335 4 19.0646 4C18.152 4 17.3634 4.63752 17.1722 5.52987L13.0582 24.7286C13.0196 24.9087 12.9563 25.0826 12.8701 25.2453L5.55423 39.0642C4.84906 40.3962 5.81466 42 7.32181 42H15.4056C16.3384 42 17.1474 41.3551 17.3553 40.4456L20.4803 26.7739L20.9193 25.2754C20.9728 25.0927 21 24.9034 21 24.713Z" stroke="black" stroke-width="4" stroke-linecap="round" stroke-linejoin="round"/>
  <path d="M13 25L20 28" stroke="black" stroke-width="4" stroke-linecap="round" stroke-linejoin="round"/>
  <path d="M27 24.713V5.9354C27 4.86651 27.8665 4 28.9354 4C29.848 4 30.6366 4.63752 30.8278 5.52987L34.9418 24.7286C34.9804 24.9087 35.0437 25.0826 35.1299 25.2453L42.4458 39.0642C43.1509 40.3962 42.1853 42 40.6782 42H32.5944C31.6616 42 30.8526 41.3551 30.6447 40.4456L27.5197 26.7739L27.0807 25.2754C27.0272 25.0927 27 24.9034 27 24.713Z" stroke="black" stroke-width="4" stroke-linecap="round" stroke-linejoin="round"/>
  <path d="M35 25L28 28" stroke="black" stroke-width="4" stroke-linecap="round" stroke-linejoin="round"/>
</svg>

<svg width="48" height="48" fill="none" xmlns="http://www.w3.org/2000/svg"><path d="M21 24.713V5.935a1.935 1.935 0 0 0-3.828-.405l-4.114 19.199c-.038.18-.102.354-.188.516l-7.316 13.82C4.85 40.395 5.814 42 7.322 42h8.084a2 2 0 0 0 1.95-1.554l3.124-13.672.44-1.499a2 2 0 0 0 .08-.562ZM13 25l7 3M27 24.713V5.935a1.935 1.935 0 0 1 3.828-.405l4.114 19.199c.038.18.102.354.188.516l7.316 13.82c.705 1.331-.26 2.935-1.768 2.935h-8.084a2 2 0 0 1-1.95-1.554L27.52 26.774l-.44-1.499a2 2 0 0 1-.08-.562ZM35 25l-7 3" stroke="#000" stroke-width="4" stroke-linecap="round" stroke-linejoin="round"/></svg>
